source/wp-content/themes/wporg-news-2021/images/podcast-services/google-podcasts-light.svg

<svg width="25" height="25" viewBox="0 0 25 25" fill="none" xmlns="http://www.w3.org/2000/svg">
<g clip-path="url(#clip0_9069_66)">
<path d="M1.97223 9.70282C1.14142 9.70282 0.470764 10.3735 0.470764 11.2043V12.8359C0.470764 13.033 0.509601 13.2283 0.585056 13.4105C0.660512 13.5926 0.771109 13.7581 0.910533 13.8976C1.04996 14.037 1.21548 14.1476 1.39764 14.223C1.57981 14.2985 1.77505 14.3373 1.97223 14.3373C2.1694 14.3373 2.36465 14.2985 2.54681 14.223C2.72898 14.1476 2.8945 14.037 3.03392 13.8976C3.17335 13.7581 3.28394 13.5926 3.3594 13.4105C3.43486 13.2283 3.47369 13.033 3.47369 12.8359V11.2043C3.47369 10.3735 2.80304 9.70282 1.97223 9.70282ZM22.9867 9.70282C22.1559 9.70282 21.4853 10.3735 21.4853 11.2043V12.8359C21.4853 13.2341 21.6434 13.616 21.925 13.8976C22.2066 14.1791 22.5885 14.3373 22.9867 14.3373C23.3849 14.3373 23.7668 14.1791 24.0484 13.8976C24.33 13.616 24.4882 13.2341 24.4882 12.8359V11.2043C24.4882 10.3735 23.8175 9.70282 22.9867 9.70282ZM7.15428 14.6166C6.32347 14.6166 5.65282 15.2873 5.65282 16.1181V17.7497C5.65282 18.1479 5.81101 18.5298 6.09259 18.8114C6.37417 19.0929 6.75607 19.2511 7.15428 19.2511C7.5525 19.2511 7.9344 19.0929 8.21598 18.8114C8.49756 18.5298 8.65575 18.1479 8.65575 17.7497V16.1281C8.65575 15.2973 7.98509 14.6266 7.15428 14.6266V14.6166ZM7.15428 4.79003C6.32347 4.79003 5.65282 5.46069 5.65282 6.2915V11.6537C5.65282 12.0519 5.81101 12.4338 6.09259 12.7154C6.37417 12.997 6.75607 13.1552 7.15428 13.1552C7.5525 13.1552 7.9344 12.997 8.21598 12.7154C8.49756 12.4338 8.65575 12.0519 8.65575 11.6537V6.27948C8.65575 5.44867 7.98509 4.77802 7.15428 4.77802V4.79003ZM17.8027 4.79003C16.9719 4.79003 16.3012 5.46069 16.3012 6.2915V7.93309C16.3012 8.33131 16.4594 8.71321 16.741 8.99479C17.0226 9.27637 17.4045 9.43456 17.8027 9.43456C18.2009 9.43456 18.5828 9.27637 18.8644 8.99479C19.1459 8.71321 19.3041 8.33131 19.3041 7.93309V6.2915C19.3041 5.46069 18.6335 4.79003 17.8027 4.79003ZM12.4795 0.0153809C11.6487 0.0153809 10.978 0.686034 10.978 1.51684V3.14843C10.978 3.54665 11.1362 3.92855 11.4178 4.21013C11.6994 4.49171 12.0813 4.6499 12.4795 4.6499C12.8777 4.6499 13.2596 4.49171 13.5412 4.21013C13.8228 3.92855 13.9809 3.54665 13.9809 3.14843V1.51684C13.9809 0.686034 13.3103 0.0163818 12.4795 0.0163818V0.0153809ZM12.4795 19.3893C11.6487 19.3893 10.978 20.0599 10.978 20.8907V22.5323C10.9774 22.7295 11.0155 22.9249 11.0904 23.1073C11.1652 23.2897 11.2753 23.4556 11.4142 23.5955C11.5532 23.7354 11.7184 23.8465 11.9003 23.9226C12.0822 23.9986 12.2773 24.0381 12.4745 24.0388C12.6716 24.0394 12.867 24.0013 13.0494 23.9264C13.2319 23.8516 13.3977 23.7415 13.5376 23.6026C13.6775 23.4636 13.7887 23.2984 13.8647 23.1165C13.9408 22.9346 13.9803 22.7395 13.9809 22.5423V20.9007C13.9809 20.0799 13.3103 19.3993 12.4795 19.3993V19.3893ZM17.8037 10.924C16.9729 10.924 16.3022 11.6047 16.3022 12.4255V17.7587C16.3022 18.1569 16.4604 18.5388 16.742 18.8204C17.0236 19.1019 17.4055 19.2601 17.8037 19.2601C18.2019 19.2601 18.5838 19.1019 18.8654 18.8204C19.1469 18.5388 19.3051 18.1569 19.3051 17.7587V12.4245C19.3051 11.5937 18.6345 10.923 17.8037 10.923V10.924ZM12.4795 6.14936C11.6487 6.14936 10.978 6.83002 10.978 7.65082V16.3873C10.978 16.7855 11.1362 17.1674 11.4178 17.449C11.6994 17.7306 12.0813 17.8888 12.4795 17.8888C12.8777 17.8888 13.2596 17.7306 13.5412 17.449C13.8228 17.1674 13.9809 16.7855 13.9809 16.3873V7.66083C13.9809 6.83002 13.3103 6.15937 12.4795 6.15937V6.14936Z" fill="#7B90FF"/>
</g>
<defs>
<clipPath id="clip0_9069_66">
<rect width="24.0234" height="24.0234" fill="white" transform="translate(0.466736 0.0153809)"/>
</clipPath>
</defs>
</svg>

<svg width="25" height="25" fill="none" xmlns="http://www.w3.org/2000/svg"><g clip-path="url(#a)"><path d="M1.972 9.703a1.5 1.5 0 0 0-1.501 1.501v1.632a1.502 1.502 0 0 0 3.003 0v-1.632a1.5 1.5 0 0 0-1.502-1.501Zm21.015 0a1.5 1.5 0 0 0-1.502 1.501v1.632a1.501 1.501 0 1 0 3.003 0v-1.632a1.5 1.5 0 0 0-1.501-1.501ZM7.154 14.617a1.5 1.5 0 0 0-1.501 1.501v1.632a1.502 1.502 0 0 0 3.003 0v-1.622a1.5 1.5 0 0 0-1.502-1.501v-.01Zm0-9.827a1.5 1.5 0 0 0-1.501 1.502v5.362a1.502 1.502 0 0 0 3.003 0V6.279a1.5 1.5 0 0 0-1.502-1.501v.012Zm10.649 0A1.5 1.5 0 0 0 16.3 6.292v1.641a1.501 1.501 0 0 0 3.003 0V6.292a1.5 1.5 0 0 0-1.501-1.502ZM12.479.015a1.5 1.5 0 0 0-1.501 1.502v1.631a1.501 1.501 0 0 0 3.003 0V1.517c0-.831-.67-1.5-1.502-1.5V.014Zm0 19.374a1.5 1.5 0 0 0-1.501 1.502v1.641a1.502 1.502 0 0 0 3.003.01v-1.641c0-.821-.67-1.502-1.502-1.502v-.01Zm5.325-8.465c-.831 0-1.502.68-1.502 1.502v5.333a1.501 1.501 0 0 0 3.003 0v-5.335a1.5 1.5 0 0 0-1.501-1.501v.001ZM12.48 6.149c-.831 0-1.502.681-1.502 1.502v8.736a1.501 1.501 0 0 0 3.003 0V7.661a1.5 1.5 0 0 0-1.502-1.502v-.01Z" fill="#7B90FF"/></g><defs><clipPath id="a"><path fill="#fff" transform="translate(.467 .015)" d="M0 0h24.023v24.023H0z"/></clipPath></defs></svg>
